images_elementary_svg/cmd/32/deletecolumns.svg

<svg height="32" viewBox="0 0 8.4666665 8.4666668" width="32" xmlns="http://www.w3.org/2000/svg" xmlns:xlink="http://www.w3.org/1999/xlink"><linearGradient id="a" gradientTransform="matrix(.50842 0 0 .4913 43.485 12.69)" gradientUnits="userSpaceOnUse" x1="3.686" x2="2.93" y1="-4.226" y2="28.474"><stop offset="0" stop-color="#f8b17e"/><stop offset=".312" stop-color="#e35d4f"/><stop offset=".571" stop-color="#c6262e"/><stop offset="1" stop-color="#690b54"/></linearGradient><linearGradient id="b" gradientTransform="matrix(.87818 0 0 .88434 13.56 3.406)" gradientUnits="userSpaceOnUse" x1="1.004" x2=".228" y1="20.709" y2="-4.382"><stop offset="0" stop-color="#791235"/><stop offset="1" stop-color="#dd3b27"/></linearGradient><linearGradient id="c" gradientTransform="matrix(.53153 -.53097 .53153 .53097 -14.042 11.965)" gradientUnits="userSpaceOnUse" x1="36.011" x2="16.331" xlink:href="#d" y1="13.023" y2="32.702"/><linearGradient id="d"><stop offset="0" stop-color="#fff"/><stop offset="1" stop-color="#fff" stop-opacity="0"/></linearGradient><linearGradient id="e" gradientTransform="matrix(.53153 -.53097 .53153 .53097 -14.578 12.234)" gradientUnits="userSpaceOnUse" x1="28.449" x2="16.331" xlink:href="#d" y1="20.584" y2="32.702"/><linearGradient id="f" gradientTransform="matrix(.3637 0 0 .41053 .033 -.33)" gradientUnits="userSpaceOnUse" x1="11.001" x2="11.001" xlink:href="#g" y1="2.269" y2="19.728"/><linearGradient id="g"><stop offset="0" stop-color="#fff"/><stop offset=".063" stop-color="#fff" stop-opacity=".235"/><stop offset=".951" stop-color="#fff" stop-opacity=".157"/><stop offset="1" stop-color="#fff" stop-opacity=".392"/></linearGradient><linearGradient id="h" gradientTransform="matrix(.36596 0 0 .37424 .025 -.13)" gradientUnits="userSpaceOnUse" x1="8.295" x2="8.295" y1="-4.284" y2="16.85"><stop offset="0" stop-color="#cdf87e"/><stop offset=".262" stop-color="#a2e34f"/><stop offset=".661" stop-color="#68b723"/><stop offset="1" stop-color="#1d7e0d"/></linearGradient><linearGradient id="i" gradientTransform="matrix(.1764 0 0 .0882 -.177 1.06)" gradientUnits="userSpaceOnUse" x1="23.954" x2="23.954" y1="15.999" y2="19.963"><stop offset="0"/><stop offset="1" stop-opacity="0"/></linearGradient><linearGradient id="j" gradientTransform="matrix(.1796 0 0 .1952 -.088 -.368)" gradientUnits="userSpaceOnUse" x1="24" x2="24" xlink:href="#g" y1="5" y2="43"/><linearGradient id="k" gradientTransform="matrix(.1573 0 0 .1587 .46 -.008)" gradientUnits="userSpaceOnUse" x1="25.132" x2="25.132" y1="15.5" y2="48.396"><stop offset="0" stop-color="#fafafa"/><stop offset="1" stop-color="#e2e1de"/></linearGradient><rect fill="url(#k)" height="7.408" rx=".264" width="6.879" x=".793" y=".53"/><path d="m.9.707h6.644l.023 7.407h-6.644z" fill="none" stroke="url(#j)" stroke-linecap="round" stroke-linejoin="round" stroke-width=".268"/><path d="m.53 2.382h7.406v.264h-7.406z" fill="url(#i)" opacity=".15"/><path d="m.66 2.12-.004 5.524c0 .203.206.423.41.423h6.324c.202 0 .41-.22.41-.424l.005-5.527" fill="none" opacity=".3" stroke="#000" stroke-width=".268"/><path d="m.965.392c-.21 0-.3.227-.3.44v1.286h7.138v-1.284c0-.216-.158-.43-.368-.43z" fill="url(#h)"/><path d="m.923.654.002 1.336 6.634.013v-1.336z" style="opacity:.5;fill:none;stroke-width:.268;stroke-linecap:round;stroke-linejoin:round;stroke:url(#f)"/><path d="m2.116.53h.267v1.586h-.267zm1.852 0h.267v1.586h-.267zm1.852 0h.267v1.586h-.267z" fill="#126400" opacity=".4"/><path d="m2.116 7.938v-7.408h2.117l.002 7.408z" fill="#fcaf3e"/><path d="m1.083.398c-.203 0-.423.245-.423.448v1.397l7.144.005v-1.406c0-.2-.192-.443-.395-.443z" fill="none" opacity=".4" stroke="#126400" stroke-linecap="round" stroke-width=".268"/><path d="m2.116 2.382h.267v5.556h-.267zm1.852 0h.267v5.556h-.267zm1.852 0h.267v5.556h-.267zm-5.027 1.058h1.323v.264h-1.323z" opacity=".321"/><path d="m2.114 7.938c0 .146.118.265.264.265h1.59c.145 0 .263-.12.263-.265l.004-7.408c0-.147-.118-.265-.264-.265h-1.591c-.145 0-.263.118-.263.264zm.264 0 .002-7.408h1.59v7.408z" fill="#ce5c00"/><path d="m2.38 3.44h1.59v.264h-1.59zm1.853 0h1.587v.264h-1.587zm1.852 0h1.587v.264h-1.587zm-5.292 1.587h1.323v.267h-1.323zm1.588 0h1.59v.267h-1.591zm1.854 0h1.585v.267h-1.587zm1.852 0h1.587v.267h-1.589zm-5.294 1.587h1.323v.266h-1.323zm1.588 0h1.59v.266h-1.591zm1.854 0h1.585v.266h-1.587zm1.852 0h1.587v.266h-1.589z" opacity=".321"/><g stroke-linejoin="round"><path d="m21.5 17.8-5.5-5.303 5.29-5.557-3.814-3.44-5.448 5.294-5.558-5.294-3.97 3.568 5.558 5.406-5.558 5.32 3.97 3.706 5.552-5.56 5.565 5.56z" fill="url(#a)" stroke="url(#b)" stroke-width="1.386" transform="matrix(.191 0 0 .191 4.06 3.962)"/><g fill="none" stroke-linecap="round" stroke-width="1.752"><path d="m18.918 7.066-1.368-1.196-5.59 5.117-5.48-5.224-1.395 1.407" opacity=".4" stroke="url(#c)" transform="matrix(.191 0 0 .191 4.06 3.962)"/><path d="m19.043 17.973-4.22-4.29m-5.604-.288-4.364 4.265" opacity=".4" stroke="url(#e)" transform="matrix(.191 0 0 .191 4.06 3.962)"/></g></g></svg>

<svg xmlns="http://www.w3.org/2000/svg" xmlns:xlink="http://www.w3.org/1999/xlink" height="32" viewBox="0 0 8.4666665 8.4666668" width="32"><defs><linearGradient xlink:href="#a" id="i" x1="3.686" y1="-4.226" x2="2.93" y2="28.474" gradientUnits="userSpaceOnUse"/><linearGradient id="a" gradientTransform="matrix(.50842 0 0 .4913 43.485 12.69)" gradientUnits="userSpaceOnUse" x1="10.714" x2="10.767" y1="3.629" y2="26.956"><stop offset="0" stop-color="#f8b17e"/><stop offset=".312" stop-color="#e35d4f"/><stop offset=".571" stop-color="#c6262e"/><stop offset="1" stop-color="#690b54"/></linearGradient><linearGradient id="j" gradientTransform="matrix(.87818 0 0 .88434 13.56 3.406)" gradientUnits="userSpaceOnUse" x1="1.004" x2=".228" y1="20.709" y2="-4.382"><stop offset="0" stop-color="#791235"/><stop offset="1" stop-color="#dd3b27"/></linearGradient><linearGradient id="k" gradientTransform="matrix(.53153 -.53097 .53153 .53097 -14.042 11.965)" gradientUnits="userSpaceOnUse" x1="36.011" x2="16.331" xlink:href="#b" y1="13.023" y2="32.702"/><linearGradient id="b"><stop offset="0" stop-color="#fff"/><stop offset="1" stop-color="#fff" stop-opacity="0"/></linearGradient><linearGradient id="l" gradientTransform="matrix(.53153 -.53097 .53153 .53097 -14.578 12.234)" gradientUnits="userSpaceOnUse" x1="28.449" x2="16.331" xlink:href="#b" y1="20.584" y2="32.702"/></defs><linearGradient id="h" gradientTransform="matrix(.3637 0 0 .41053 .033 -.33)" gradientUnits="userSpaceOnUse" x1="11.001" x2="11.001" xlink:href="#c" y1="2.269" y2="19.728"/><linearGradient id="c"><stop offset="0" stop-color="#fff"/><stop offset=".063" stop-color="#fff" stop-opacity=".235"/><stop offset=".951" stop-color="#fff" stop-opacity=".157"/><stop offset="1" stop-color="#fff" stop-opacity=".392"/></linearGradient><linearGradient id="g" gradientTransform="matrix(.36596 0 0 .37424 .025 -.13)" gradientUnits="userSpaceOnUse" x1="8.295" x2="8.295" y1="-4.284" y2="16.85"><stop offset="0" stop-color="#cdf87e"/><stop offset=".262" stop-color="#a2e34f"/><stop offset=".661" stop-color="#68b723"/><stop offset="1" stop-color="#1d7e0d"/></linearGradient><linearGradient id="f" gradientTransform="matrix(.1764 0 0 .0882 -.177 1.06)" gradientUnits="userSpaceOnUse" x1="23.954" x2="23.954" y1="15.999" y2="19.963"><stop offset="0"/><stop offset="1" stop-opacity="0"/></linearGradient><linearGradient id="e" gradientTransform="matrix(.1796 0 0 .1952 -.088 -.368)" gradientUnits="userSpaceOnUse" x1="24" x2="24" xlink:href="#c" y1="5" y2="43"/><linearGradient id="d" gradientTransform="matrix(.1573 0 0 .1587 .46 -.008)" gradientUnits="userSpaceOnUse" x1="25.132" x2="25.132" y1="15.5" y2="48.396"><stop offset="0" stop-color="#fafafa"/><stop offset="1" stop-color="#e2e1de"/></linearGradient><rect y=".53" x=".793" width="6.879" rx=".264" height="7.408" fill="url(#d)"/><path d="M.9.707h6.644l.023 7.407H.923z" fill="none" stroke="url(#e)" stroke-width=".268" stroke-linecap="round" stroke-linejoin="round"/><path d="M.53 2.382h7.406v.264H.53z" opacity=".15" fill="url(#f)"/><path d="M.66 2.12L.656 7.644c0 .203.206.423.41.423H7.39c.202 0 .41-.22.41-.424l.005-5.527" opacity=".3" fill="none" stroke="#000" stroke-width=".268"/><path d="M.965.392c-.21 0-.3.227-.3.44v1.286h7.138V.834c0-.216-.158-.43-.368-.43z" fill="url(#g)"/><path d="M.923.654L.925 1.99l6.634.013V.667z" opacity=".5" fill="none" stroke="url(#h)" stroke-width=".268" stroke-linecap="round" stroke-linejoin="round"/><path d="M2.116.53h.267v1.586h-.267zm1.852 0h.267v1.586h-.267zm1.852 0h.267v1.586H5.82z" opacity=".4" fill="#126400"/><path d="M2.116 7.938V.53h2.117l.002 7.408z" fill="#fcaf3e"/><path d="M1.083.398C.88.398.66.643.66.846v1.397l7.144.005V.842c0-.2-.192-.443-.395-.443z" opacity=".4" fill="none" stroke="#126400" stroke-width=".268" stroke-linecap="round"/><path d="M2.116 2.382h.267v5.556h-.267zm1.852 0h.267v5.556h-.267zm1.852 0h.267v5.556H5.82zM.793 3.44h1.323v.264H.793z" opacity=".321"/><path d="M2.114 7.938c0 .146.118.265.264.265h1.59c.145 0 .263-.12.263-.265L4.235.53c0-.147-.118-.265-.264-.265H2.38c-.145 0-.263.118-.263.264zm.264 0L2.38.53h1.59L3.97 7.938z" fill="#ce5c00"/><path d="M2.38 3.44h1.59v.264H2.38zm1.853 0H5.82v.264H4.233zm1.852 0h1.587v.264H6.085zM.793 5.027h1.323v.267H.793zm1.588 0h1.59v.267H2.38zm1.854 0H5.82v.267H4.233zm1.852 0h1.587v.267H6.085zM.793 6.614h1.323v.266H.793zm1.588 0h1.59v.266H2.38zm1.854 0H5.82v.266H4.233zm1.852 0h1.587v.266H6.085z" opacity=".321"/><g stroke-linejoin="round"><path d="M21.5 17.8L16 12.497l5.29-5.557-3.814-3.44-5.448 5.294L6.47 3.5 2.5 7.068l5.558 5.406-5.558 5.32L6.47 21.5l5.552-5.56 5.565 5.56z" transform="matrix(.191 0 0 .191 4.06 3.962)" fill="url(#i)" stroke="url(#j)" stroke-width="1.386"/><g fill="none" stroke-width="1.752" stroke-linecap="round"><path d="M18.918 7.066L17.55 5.87l-5.59 5.117-5.48-5.224L5.085 7.17" transform="matrix(.191 0 0 .191 4.06 3.962)" opacity=".4" stroke="url(#k)"/><path d="M19.043 17.973l-4.22-4.29m-5.604-.288L4.855 17.66" transform="matrix(.191 0 0 .191 4.06 3.962)" opacity=".4" stroke="url(#l)"/></g></g></svg>
